X:17977
T:Unfortunate Rake
M:6/8
L:1/8
K:E Dorian
D|EBB BAG|FDF AGF|EBB BAG|FDF E2D|!
EBB BAG|FDF AGF|GAB AdB|AGF E2:|!
A|Bee efg|fdf edA|Bee efg|fdf e2A|!
Bee efg|fdf edB|GAB AdB|AGF E2:|!
